src/xmb/retrosystem/Nintendo - Nintendo DSi.svg

<?xml version="1.0" encoding="UTF-8" standalone="no"?>
<svg
   xmlns:dc="http://purl.org/dc/elements/1.1/"
   xmlns:cc="http://creativecommons.org/ns#"
   xmlns:rdf="http://www.w3.org/1999/02/22-rdf-syntax-ns#"
   xmlns:svg="http://www.w3.org/2000/svg"
   xmlns="http://www.w3.org/2000/svg"
   xmlns:sodipodi="http://sodipodi.sourceforge.net/DTD/sodipodi-0.dtd"
   xmlns:inkscape="http://www.inkscape.org/namespaces/inkscape"
   viewBox="0 0 341.33334 341.33334"
   height="256"
   width="256"
   xml:space="preserve"
   id="svg2"
   version="1.1"
   sodipodi:docname="Nintendo - Nintendo DSi.svg"
   inkscape:version="0.92.3 (2405546, 2018-03-11)"
   inkscape:export-filename="D:\Documents\Github\Retrosystem-retroarch-theme\png\Nintendo - Nintendo DSi.png"
   inkscape:export-xdpi="72"
   inkscape:export-ydpi="72"><sodipodi:namedview
     pagecolor="#ffffff"
     bordercolor="#666666"
     borderopacity="1"
     objecttolerance="10"
     gridtolerance="10"
     guidetolerance="10"
     inkscape:pageopacity="0"
     inkscape:pageshadow="2"
     inkscape:window-width="1920"
     inkscape:window-height="1001"
     id="namedview111"
     showgrid="false"
     inkscape:pagecheckerboard="true"
     inkscape:zoom="1.3828125"
     inkscape:cx="233.38599"
     inkscape:cy="104.39037"
     inkscape:window-x="-9"
     inkscape:window-y="-9"
     inkscape:window-maximized="1"
     inkscape:current-layer="svg2" /><metadata
     id="metadata8"><rdf:RDF><cc:Work
         rdf:about=""><dc:format>image/svg+xml</dc:format><dc:type
           rdf:resource="http://purl.org/dc/dcmitype/StillImage" /><dc:title /></cc:Work></rdf:RDF></metadata><defs
     id="defs6"><clipPath
       id="clipPath18"
       clipPathUnits="userSpaceOnUse"><path
         id="path16"
         d="M 0,256 H 256 V 0 H 0 Z" /></clipPath><clipPath
       id="clipPath26"
       clipPathUnits="userSpaceOnUse"><path
         id="path24"
         d="M 12,252 H 244 V 4 H 12 Z" /></clipPath></defs><path
     id="path38-5"
     style="fill:#3096cf;fill-opacity:1;fill-rule:nonzero;stroke:none;stroke-width:1.33333325"
     d="m 319.99999,29.333338 c 0,-5.890667 -4.776,-10.666666 -10.66667,-10.666666 H 32.000001 c -5.890666,0 -10.666666,4.775999 -10.666666,10.666666 V 162.66667 h 5.333333 V 168 H 314.66666 v -5.33333 h 5.33333 z"
     inkscape:connector-curvature="0" /><path
     id="path42"
     style="fill:#2c8bbf;fill-opacity:1;fill-rule:nonzero;stroke:none;stroke-width:1.33333325"
     d="M 309.33333,322.66667 H 32.000008 c -5.890667,0 -10.666667,-4.776 -10.666667,-10.66667 V 178.66667 H 320 V 312 c 0,5.89067 -4.776,10.66667 -10.66667,10.66667"
     inkscape:connector-curvature="0" /><path
     inkscape:connector-curvature="0"
     d="M 250.66666,312 H 90.666668 V 189.33334 H 250.66666 Z"
     style="fill:#29678f;fill-opacity:1;fill-rule:nonzero;stroke:none;stroke-width:1.33333325"
     id="path44-7" /><path
     inkscape:connector-curvature="0"
     d="M 245.33333,306.66667 H 96.000002 v -112 H 245.33333 Z"
     style="fill:#191919;fill-opacity:1;fill-rule:nonzero;stroke:none;stroke-width:1.33333325"
     id="path46" /><path
     inkscape:connector-curvature="0"
     d="M 242.66666,304 H 98.666668 V 197.33334 H 242.66666 Z"
     style="fill:#7f8c8d;fill-opacity:1;fill-rule:nonzero;stroke:none;stroke-width:1.33333325"
     id="path48-3" /><path
     id="path52"
     style="fill:#29678f;fill-opacity:1;fill-rule:nonzero;stroke:none;stroke-width:1.33333325"
     d="m 24.000003,29.333338 c 0,-4.412 3.588,-8 8,-8 H 309.33333 c 4.412,0 7.99999,3.588 7.99999,8 V 162.66667 h 2.66667 V 29.333338 c 0,-5.890667 -4.776,-10.666666 -10.66666,-10.666666 H 32.000003 c -5.890667,0 -10.666667,4.775999 -10.666667,10.666666 V 162.66667 h 2.666667 z"
     inkscape:connector-curvature="0" /><path
     id="path56"
     style="fill:#29678f;fill-opacity:1;fill-rule:nonzero;stroke:none;stroke-width:1.33333325"
     d="M 314.66666,162.66667 H 26.666671 c -2.945333,0 -5.333333,2.388 -5.333333,5.33333 v 10.66667 c 0,2.94533 2.388,5.33333 5.333333,5.33333 H 314.66666 c 2.94533,0 5.33333,-2.388 5.33333,-5.33333 V 168 c 0,-2.94533 -2.388,-5.33333 -5.33333,-5.33333"
     inkscape:connector-curvature="0" /><path
     inkscape:connector-curvature="0"
     d="M 24.000003,50.666671 H 21.333337 V 29.333338 h 2.666666 z"
     style="fill:#2c3e50;fill-opacity:1;fill-rule:nonzero;stroke:none;stroke-width:1.33333325"
     id="path58-7" /><path
     inkscape:connector-curvature="0"
     d="m 319.99999,50.666671 h -2.66666 V 29.333338 h 2.66666 z"
     style="fill:#2c3e50;fill-opacity:1;fill-rule:nonzero;stroke:none;stroke-width:1.33333325"
     id="path60-9" /><path
     inkscape:connector-curvature="0"
     d="M 245.33333,149.33334 H 96.000002 V 37.333339 H 245.33333 Z"
     style="fill:#191919;fill-opacity:1;fill-rule:nonzero;stroke:none;stroke-width:1.33333325"
     id="path62" /><path
     inkscape:connector-curvature="0"
     d="M 242.66666,146.66667 H 98.666668 V 40.000005 H 242.66666 Z"
     style="fill:#7f8c8d;fill-opacity:1;fill-rule:nonzero;stroke:none;stroke-width:1.33333325"
     id="path64-7" /><path
     id="path68-8"
     style="fill:#29678f;fill-opacity:1;fill-rule:nonzero;stroke:none;stroke-width:1.33333325"
     d="M 245.33333,32.000005 H 96.000004 c -2.941333,0 -5.333333,2.392001 -5.333333,5.333334 V 149.33334 c 0,2.94133 2.392,5.33333 5.333333,5.33333 H 245.33333 c 2.94133,0 5.33333,-2.392 5.33333,-5.33333 V 37.333339 c 0,-2.941333 -2.392,-5.333334 -5.33333,-5.333334 m 0,2.666668 c 1.472,0 2.66667,1.194666 2.66667,2.666666 V 149.33334 C 248,150.80534 246.80533,152 245.33333,152 H 96.000004 c -1.472,0 -2.666666,-1.19466 -2.666666,-2.66666 V 37.333339 c 0,-1.472 1.194666,-2.666666 2.666666,-2.666666 H 245.33333"
     inkscape:connector-curvature="0" /><path
     id="path72-0"
     style="fill:#191919;fill-opacity:1;fill-rule:nonzero;stroke:none;stroke-width:1.33333325"
     d="m 61.333336,130.66667 h -5.333333 c -1.472,0 -2.666667,-1.19467 -2.666667,-2.66667 0,-1.472 1.194667,-2.66666 2.666667,-2.66666 h 5.333333 c 1.472,0 2.666667,1.19466 2.666667,2.66666 0,1.472 -1.194667,2.66667 -2.666667,2.66667"
     inkscape:connector-curvature="0" /><path
     id="path76-1"
     style="fill:#191919;fill-opacity:1;fill-rule:nonzero;stroke:none;stroke-width:1.33333325"
     d="M 285.33333,130.66667 H 280 c -1.472,0 -2.66667,-1.19467 -2.66667,-2.66667 0,-1.472 1.19467,-2.66666 2.66667,-2.66666 h 5.33333 c 1.472,0 2.66667,1.19466 2.66667,2.66666 0,1.472 -1.19467,2.66667 -2.66667,2.66667"
     inkscape:connector-curvature="0" /><path
     inkscape:connector-curvature="0"
     d="m 64.000002,184 h -2.666666 v -21.33333 h 2.666666 z"
     style="fill:#29678f;fill-opacity:1;fill-rule:nonzero;stroke:none;stroke-width:1.33333325"
     id="path78" /><path
     inkscape:connector-curvature="0"
     d="m 279.99999,184 h -2.66666 v -21.33333 h 2.66666 z"
     style="fill:#29678f;fill-opacity:1;fill-rule:nonzero;stroke:none;stroke-width:1.33333325"
     id="path80-2" /><path
     id="path84-1"
     style="fill:#191919;fill-opacity:1;fill-rule:nonzero;stroke:none;stroke-width:1.33333325"
     d="m 172,178.66667 h -2.66667 c -2.20933,0 -4,-1.79067 -4,-4 V 172 c 0,-2.20933 1.79067,-4 4,-4 H 172 c 2.20933,0 4,1.79067 4,4 v 2.66667 c 0,2.20933 -1.79067,4 -4,4"
     inkscape:connector-curvature="0" /><path
     id="path88-2"
     style="fill:#333333;fill-opacity:1;fill-rule:nonzero;stroke:none;stroke-width:1.33333325"
     d="m 173.33333,173.33334 c 0,1.472 -1.19467,2.66667 -2.66667,2.66667 -1.472,0 -2.66666,-1.19467 -2.66666,-2.66667 0,-1.472 1.19466,-2.66667 2.66666,-2.66667 1.472,0 2.66667,1.19467 2.66667,2.66667"
     inkscape:connector-curvature="0" /><path
     id="path92-4"
     style="fill:#191919;fill-opacity:1;fill-rule:nonzero;stroke:none;stroke-width:1.33333325"
     d="m 172,173.33334 c 0,0.736 -0.59733,1.33333 -1.33333,1.33333 -0.736,0 -1.33334,-0.59733 -1.33334,-1.33333 0,-0.736 0.59734,-1.33333 1.33334,-1.33333 0.736,0 1.33333,0.59733 1.33333,1.33333"
     inkscape:connector-curvature="0" /><path
     id="path96-5"
     style="fill:#191919;fill-opacity:1;fill-rule:nonzero;stroke:none;stroke-width:1.33333325"
     d="m 193.33333,173.33334 c 0,0.736 -0.596,1.33333 -1.33333,1.33333 -0.73734,0 -1.33334,-0.59733 -1.33334,-1.33333 0,-0.736 0.596,-1.33333 1.33334,-1.33333 0.73733,0 1.33333,0.59733 1.33333,1.33333"
     inkscape:connector-curvature="0" /><path
     inkscape:connector-curvature="0"
     d="M 50.666669,178.66667 H 48.000003 V 168 h 2.666666 z"
     style="fill:#2c3e50;fill-opacity:1;fill-rule:nonzero;stroke:none;stroke-width:1.33333325"
     id="path98" /><path
     inkscape:connector-curvature="0"
     d="M 42.66667,178.66667 H 40.000003 V 168 h 2.666667 z"
     style="fill:#2c3e50;fill-opacity:1;fill-rule:nonzero;stroke:none;stroke-width:1.33333325"
     id="path100-3" /><path
     inkscape:connector-curvature="0"
     d="M 34.66667,178.66667 H 32.000003 V 168 h 2.666667 z"
     style="fill:#2c3e50;fill-opacity:1;fill-rule:nonzero;stroke:none;stroke-width:1.33333325"
     id="path102" /><path
     id="path106"
     style="fill:#245a7c;fill-opacity:1;fill-rule:nonzero;stroke:#2c3e50;stroke-width:1.33333325;stroke-opacity:1"
     d="m 76.000002,229.33334 h -12 v -12 c 0,-0.73733 -0.597333,-1.33333 -1.333333,-1.33333 h -8 c -0.736,0 -1.333333,0.596 -1.333333,1.33333 v 12 h -12 c -0.736,0 -1.333333,0.596 -1.333333,1.33333 v 8 c 0,0.73734 0.597333,1.33334 1.333333,1.33334 h 12 v 12 c 0,0.73733 0.597333,1.33333 1.333333,1.33333 h 8 c 0.736,0 1.333333,-0.596 1.333333,-1.33333 v -12 h 12 c 0.736,0 1.333333,-0.596 1.333333,-1.33334 v -8 c 0,-0.73733 -0.597333,-1.33333 -1.333333,-1.33333"
     inkscape:connector-curvature="0" /><path
     inkscape:connector-curvature="0"
     d="m 57.333336,218.66667 h 2.666667 v 8 h -2.666667 z"
     style="fill:#cccccc;fill-opacity:1;fill-rule:nonzero;stroke:none;stroke-width:1.33333325"
     id="path108-5" /><path
     inkscape:connector-curvature="0"
     d="m 57.333336,242.66667 h 2.666667 v 8 h -2.666667 z"
     style="fill:#cccccc;fill-opacity:1;fill-rule:nonzero;stroke:none;stroke-width:1.33333325"
     id="path110" /><path
     inkscape:connector-curvature="0"
     d="m 74.666669,236 h -8 v -2.66666 h 8 z"
     style="fill:#cccccc;fill-opacity:1;fill-rule:nonzero;stroke:none;stroke-width:1.33333325"
     id="path112-4" /><path
     inkscape:connector-curvature="0"
     d="M 50.666669,236 H 42.66667 v -2.66666 h 7.999999 z"
     style="fill:#cccccc;fill-opacity:1;fill-rule:nonzero;stroke:none;stroke-width:1.33333325"
     id="path114" /><path
     id="path118"
     style="fill:#245a7c;fill-opacity:1;fill-rule:nonzero;stroke:#2c3e50;stroke-width:1.33333325;stroke-opacity:1"
     d="m 293.07546,213.07547 c 0,4.276 -3.46667,7.74267 -7.74267,7.74267 -4.276,0 -7.74133,-3.46667 -7.74133,-7.74267 0,-4.276 3.46533,-7.74267 7.74133,-7.74267 4.276,0 7.74267,3.46667 7.74267,7.74267"
     inkscape:connector-curvature="0" /><path
     id="path122"
     style="fill:#245a7c;fill-opacity:1;fill-rule:nonzero;stroke:#2c3e50;stroke-width:1.33333325;stroke-opacity:1"
     d="m 293.07546,245.5912 c 0,4.276 -3.46667,7.74267 -7.74267,7.74267 -4.276,0 -7.74133,-3.46667 -7.74133,-7.74267 0,-4.276 3.46533,-7.74267 7.74133,-7.74267 4.276,0 7.74267,3.46667 7.74267,7.74267"
     inkscape:connector-curvature="0" /><path
     id="path126-0"
     style="fill:#245a7c;fill-opacity:1;fill-rule:nonzero;stroke:#2c3e50;stroke-width:1.33333325;stroke-opacity:1"
     d="m 301.59119,237.84894 c -4.276,0 -7.74267,-3.46667 -7.74267,-7.74133 0,-4.276 3.46667,-7.74134 7.74267,-7.74134 4.276,0 7.74267,3.46534 7.74267,7.74134 0,4.27466 -3.46667,7.74133 -7.74267,7.74133"
     inkscape:connector-curvature="0" /><path
     id="path130-3"
     style="fill:#245a7c;fill-opacity:1;fill-rule:nonzero;stroke:#2c3e50;stroke-width:1.33333325;stroke-opacity:1"
     d="m 269.07546,237.84894 c -4.276,0 -7.74267,-3.46667 -7.74267,-7.74133 0,-4.276 3.46667,-7.74134 7.74267,-7.74134 4.276,0 7.74267,3.46534 7.74267,7.74134 0,4.27466 -3.46667,7.74133 -7.74267,7.74133"
     inkscape:connector-curvature="0" /><path
     id="path134"
     style="fill:#245a7c;fill-opacity:1;fill-rule:nonzero;stroke:#2c3e50;stroke-width:1.33333325;stroke-opacity:1"
     d="m 269.33333,288 c 0,2.94533 -2.388,5.33333 -5.33333,5.33333 -2.94534,0 -5.33334,-2.388 -5.33334,-5.33333 0,-2.94533 2.388,-5.33333 5.33334,-5.33333 2.94533,0 5.33333,2.388 5.33333,5.33333"
     inkscape:connector-curvature="0" /><path
     id="path138"
     style="fill:#245a7c;fill-opacity:1;fill-rule:nonzero;stroke:#2c3e50;stroke-width:1.33333325;stroke-opacity:1"
     d="m 269.33333,304 c 0,2.94533 -2.388,5.33333 -5.33333,5.33333 -2.94534,0 -5.33334,-2.388 -5.33334,-5.33333 0,-2.94533 2.388,-5.33333 5.33334,-5.33333 2.94533,0 5.33333,2.388 5.33333,5.33333"
     inkscape:connector-curvature="0" /><path
     id="path142"
     style="fill:#cccccc;fill-opacity:1;fill-rule:nonzero;stroke:none;stroke-width:1.33333325"
     d="m 82.666669,304 c 0,2.94533 -2.388,5.33333 -5.333333,5.33333 -2.945333,0 -5.333333,-2.388 -5.333333,-5.33333 0,-2.94533 2.388,-5.33333 5.333333,-5.33333 2.945333,0 5.333333,2.388 5.333333,5.33333"
     inkscape:connector-curvature="0" /><path
     style="fill:none;fill-opacity:1;fill-rule:nonzero;stroke:#1a1a1a;stroke-width:1.99999994;stroke-miterlimit:4;stroke-dasharray:none"
     d="M 24 14 C 19.582001 14 16 17.582 16 22 L 16 38 L 16 122 L 20 122 C 17.791 122 16 123.791 16 126 L 16 134 L 16 234 C 16 238.418 19.582 242 24 242 L 232 242 C 236.418 242 240 238.418 240 234 L 240 134 L 240 126 C 240 123.791 238.209 122 236 122 L 240 122 L 240 38 L 240 22 C 240 17.582 236.418 14 232 14 L 24 14 z "
     transform="scale(1.3333334)"
     id="path850" /></svg>

<svg xmlns="http://www.w3.org/2000/svg" xml:space="preserve" width="256" height="256" viewBox="0 0 341.333 341.333"><path d="M320 29.333c0-5.89-4.776-10.666-10.667-10.666H32c-5.89 0-10.667 4.776-10.667 10.666v133.334h5.334V168h288v-5.333H320z" style="fill:#3096cf;fill-opacity:1;fill-rule:nonzero;stroke:none;stroke-width:1.33333325"/><path d="M309.333 322.667H32c-5.89 0-10.667-4.776-10.667-10.667V178.667H320V312c0 5.89-4.776 10.667-10.667 10.667" style="fill:#2c8bbf;fill-opacity:1;fill-rule:nonzero;stroke:none;stroke-width:1.33333325"/><path d="M250.667 312h-160V189.333h160Z" style="fill:#29678f;fill-opacity:1;fill-rule:nonzero;stroke:none;stroke-width:1.33333325"/><path d="M245.333 306.667H96v-112h149.333Z" style="fill:#191919;fill-opacity:1;fill-rule:nonzero;stroke:none;stroke-width:1.33333325"/><path d="M242.667 304h-144V197.333h144Z" style="fill:#7f8c8d;fill-opacity:1;fill-rule:nonzero;stroke:none;stroke-width:1.33333325"/><path d="M24 29.333c0-4.412 3.588-8 8-8h277.333c4.412 0 8 3.588 8 8v133.334H320V29.333c0-5.89-4.776-10.666-10.667-10.666H32c-5.89 0-10.667 4.776-10.667 10.666v133.334H24zm290.667 133.334h-288A5.334 5.334 0 0 0 21.333 168v10.667A5.334 5.334 0 0 0 26.667 184h288a5.334 5.334 0 0 0 5.333-5.333V168a5.334 5.334 0 0 0-5.333-5.333" style="fill:#29678f;fill-opacity:1;fill-rule:nonzero;stroke:none;stroke-width:1.33333325"/><path d="M24 50.667h-2.667V29.333H24zm296 0h-2.667V29.333H320z" style="fill:#2c3e50;fill-opacity:1;fill-rule:nonzero;stroke:none;stroke-width:1.33333325"/><path d="M245.333 149.333H96v-112h149.333Z" style="fill:#191919;fill-opacity:1;fill-rule:nonzero;stroke:none;stroke-width:1.33333325"/><path d="M242.667 146.667h-144V40h144Z" style="fill:#7f8c8d;fill-opacity:1;fill-rule:nonzero;stroke:none;stroke-width:1.33333325"/><path d="M245.333 32H96a5.34 5.34 0 0 0-5.333 5.333v112A5.34 5.34 0 0 0 96 154.667h149.333a5.34 5.34 0 0 0 5.334-5.334v-112A5.34 5.34 0 0 0 245.333 32m0 2.667A2.67 2.67 0 0 1 248 37.333v112a2.67 2.67 0 0 1-2.667 2.667H96a2.67 2.67 0 0 1-2.667-2.667v-112A2.67 2.67 0 0 1 96 34.667z" style="fill:#29678f;fill-opacity:1;fill-rule:nonzero;stroke:none;stroke-width:1.33333325"/><path d="M61.333 130.667H56a2.668 2.668 0 0 1 0-5.334h5.333a2.668 2.668 0 0 1 0 5.334m224 0H280a2.668 2.668 0 0 1 0-5.334h5.333a2.668 2.668 0 0 1 0 5.334" style="fill:#191919;fill-opacity:1;fill-rule:nonzero;stroke:none;stroke-width:1.33333325"/><path d="M64 184h-2.667v-21.333H64zm216 0h-2.667v-21.333H280z" style="fill:#29678f;fill-opacity:1;fill-rule:nonzero;stroke:none;stroke-width:1.33333325"/><path d="M172 178.667h-2.667a4 4 0 0 1-4-4V172a4 4 0 0 1 4-4H172a4 4 0 0 1 4 4v2.667a4 4 0 0 1-4 4" style="fill:#191919;fill-opacity:1;fill-rule:nonzero;stroke:none;stroke-width:1.33333325"/><path d="M173.333 173.333a2.668 2.668 0 0 1-5.333 0 2.668 2.668 0 0 1 5.333 0" style="fill:#333;fill-opacity:1;fill-rule:nonzero;stroke:none;stroke-width:1.33333325"/><path d="M172 173.333a1.334 1.334 0 1 1-2.668 0 1.334 1.334 0 0 1 2.668 0m21.333 0a1.333 1.333 0 1 1-2.666.001 1.333 1.333 0 0 1 2.666 0" style="fill:#191919;fill-opacity:1;fill-rule:nonzero;stroke:none;stroke-width:1.33333325"/><path d="M50.667 178.667H48V168h2.667zm-8 0H40V168h2.667zm-8 0H32V168h2.667z" style="fill:#2c3e50;fill-opacity:1;fill-rule:nonzero;stroke:none;stroke-width:1.33333325"/><path d="M76 229.333H64v-12c0-.737-.597-1.333-1.333-1.333h-8c-.736 0-1.334.596-1.334 1.333v12h-12c-.736 0-1.333.596-1.333 1.334v8c0 .737.597 1.333 1.333 1.333h12v12c0 .737.598 1.333 1.334 1.333h8c.736 0 1.333-.596 1.333-1.333v-12h12c.736 0 1.333-.596 1.333-1.333v-8c0-.738-.597-1.334-1.333-1.334" style="fill:#245a7c;fill-opacity:1;fill-rule:nonzero;stroke:#2c3e50;stroke-width:1.33333325;stroke-opacity:1"/><path d="M57.333 218.667H60v8h-2.667zm0 24H60v8h-2.667zM74.667 236h-8v-2.667h8zm-24 0h-8v-2.667h8z" style="fill:#ccc;fill-opacity:1;fill-rule:nonzero;stroke:none;stroke-width:1.33333325"/><path d="M293.075 213.075a7.743 7.743 0 1 1-15.485 0 7.743 7.743 0 0 1 15.485 0m0 32.516a7.743 7.743 0 1 1-15.485 0 7.743 7.743 0 0 1 15.485 0m8.516-7.742a7.742 7.742 0 1 1 0-15.483 7.742 7.742 0 1 1 0 15.483m-32.516 0a7.742 7.742 0 1 1 0-15.483 7.742 7.742 0 1 1 0 15.483m.258 50.151a5.334 5.334 0 1 1-10.667 0 5.334 5.334 0 0 1 10.667 0m0 16a5.334 5.334 0 1 1-10.667 0 5.334 5.334 0 0 1 10.667 0" style="fill:#245a7c;fill-opacity:1;fill-rule:nonzero;stroke:#2c3e50;stroke-width:1.33333325;stroke-opacity:1"/><path d="M82.667 304A5.334 5.334 0 1 1 72 304a5.334 5.334 0 0 1 10.667 0" style="fill:#ccc;fill-opacity:1;fill-rule:nonzero;stroke:none;stroke-width:1.33333325"/><path d="M24 14a8 8 0 0 0-8 8v100h4a4 4 0 0 0-4 4v108a8 8 0 0 0 8 8h208a8 8 0 0 0 8-8V126a4 4 0 0 0-4-4h4V22a8 8 0 0 0-8-8z" style="fill:none;fill-opacity:1;fill-rule:nonzero;stroke:#1a1a1a;stroke-width:1.99999994;stroke-miterlimit:4;stroke-dasharray:none" transform="scale(1.33333)"/></svg>
